icons/dark/ts.svg

<svg width="16" height="16" viewBox="0 0 16 16" fill="none" xmlns="http://www.w3.org/2000/svg">
<path d="M2 2H14V14H2V2ZM9.14 11.9067C9.47333 12.56 10.1467 13.06 11.2 13.06C12.2667 13.06 13.0667 12.5067 13.0667 11.4867C13.0667 10.5467 12.5267 10.1267 11.5667 9.71333L11.2867 9.59333C10.8 9.38667 10.5933 9.24667 10.5933 8.91333C10.5933 8.64 10.8 8.42667 11.1333 8.42667C11.4533 8.42667 11.6667 8.56667 11.86 8.91333L12.7333 8.33333C12.3667 7.69333 11.8467 7.44667 11.1333 7.44667C10.1267 7.44667 9.48 8.08667 9.48 8.93333C9.48 9.85333 10.02 10.2867 10.8333 10.6333L11.1133 10.7533C11.6333 10.98 11.94 11.12 11.94 11.5067C11.94 11.8267 11.64 12.06 11.1733 12.06C10.62 12.06 10.3 11.7733 10.06 11.3733L9.14 11.9067ZM8.66667 7.5H5.33333V8.5H6.33333V13.3333H7.5V8.5H8.66667V7.5Z" fill="#C5C5C5"/>
</svg>

<svg xmlns="http://www.w3.org/2000/svg" width="16" height="16" fill="none" xmlns:v="https://vecta.io/nano"><path d="M2 2h12v12H2V2zm7.14 9.907c.333.653 1.007 1.153 2.06 1.153 1.067 0 1.867-.553 1.867-1.573 0-.94-.54-1.36-1.5-1.773l-.28-.12c-.487-.207-.693-.347-.693-.68 0-.273.207-.487.54-.487.32 0 .533.14.727.487l.873-.58c-.367-.64-.887-.887-1.6-.887-1.007 0-1.653.64-1.653 1.487 0 .92.54 1.353 1.353 1.7l.28.12c.52.227.827.367.827.753 0 .32-.3.553-.767.553-.553 0-.873-.287-1.113-.687l-.92.533zM8.667 7.5H5.333v1h1v4.833H7.5V8.5h1.167v-1z" fill="#c5c5c5"/></svg>
